X: 18
M: 2/4
L: 1/16
K: D
ab |\
(fd)(ge) afbg | {f}e4 z2 ab |\
fgad' f2Te2 | d4 z2 |]
fdge afbg | {f}e4 z2AB |\
fgad' f2e2 | d4 z2 |]


